images/icon-overview.svg

<svg xmlns="http://www.w3.org/2000/svg" viewBox="0 0 64 64" preserveAspectRatio="xMidYMin meet">
    <g data-name="Layer 1">
        <path fill="#ffffff" d="M40.93 51.66L24.42 54.3V12.12l16.51-2.64v42.18z"></path>
        <path fill-opacity=".5" fill="#ffffff"
            d="M57.71 53.19l-16.59-1.32-16.59 2.65-16.58-1.33V12.14l16.58 1.33 16.59-2.65 16.59 1.32v41.05z"></path>
        <path
            d="M24.41 54.52h-.08l-17.2-1.38V10.76l17.23 1.37 16.58-2.65H41l17.2 1.37v42.39L41 51.87zM8.46 51.91l15.9 1.27 16.58-2.65H41l15.87 1.27V12.09L41 10.82l-16.59 2.65h-.08L8.46 12.19z"
            fill="#ffffff"></path>
        <path
            d="M59.63 31.82a3 3 0 0 0-3-3A5.48 5.48 0 0 0 46.79 26h-.37a4.42 4.42 0 0 0-.48 8.81h11.1a3 3 0 0 0 2.59-2.99zm-34.02.79A3.61 3.61 0 0 0 22 29h-.06a6.6 6.6 0 0 0-11.81-3.41h-.44a5.33 5.33 0 0 0-.58 10.62h13.37a3.6 3.6 0 0 0 3.13-3.6z"
            fill="#ffffff" stroke="#ffffff" stroke-miterlimit="10"></path>
        <circle cx="32.83" cy="32" r="10" class="fill-current-color" fill="#0079d6"></circle>
        <path fill="#ffffff" d="M36.89 26.93l-5.64 4.02-2.48 6.48 5.64-4.03 2.48-6.47z"></path>
    </g>
</svg>

<?xml version="1.0" encoding="UTF-8" standalone="no"?>
<svg
   viewBox="0 0 64 64"
   preserveAspectRatio="xMidYMin meet"
   version="1.1"
   id="svg16"
   sodipodi:docname="icon-overview - 복사본.svg"
   inkscape:version="1.2 (dc2aedaf03, 2022-05-15)"
   xmlns:inkscape="http://www.inkscape.org/namespaces/inkscape"
   xmlns:sodipodi="http://sodipodi.sourceforge.net/DTD/sodipodi-0.dtd"
   xmlns="http://www.w3.org/2000/svg"
   xmlns:svg="http://www.w3.org/2000/svg">
  <defs
     id="defs20" />
  <sodipodi:namedview
     id="namedview18"
     pagecolor="#ffffff"
     bordercolor="#000000"
     borderopacity="0.25"
     inkscape:showpageshadow="2"
     inkscape:pageopacity="0.0"
     inkscape:pagecheckerboard="0"
     inkscape:deskcolor="#d1d1d1"
     showgrid="false"
     inkscape:zoom="12.953125"
     inkscape:cx="32.038601"
     inkscape:cy="32.038601"
     inkscape:window-width="1920"
     inkscape:window-height="1057"
     inkscape:window-x="1912"
     inkscape:window-y="-8"
     inkscape:window-maximized="1"
     inkscape:current-layer="svg16" />
  <g
     data-name="Layer 1"
     id="g14"
     transform="matrix(1.1387443,0,0,1.1387433,-4.4727572,-4.7952865)">
    <path
       fill="#ffffff"
       d="M 40.93,51.66 24.42,54.3 V 12.12 L 40.93,9.48 Z"
       id="path2" />
    <path
       fill-opacity="0.5"
       fill="#ffffff"
       d="M 57.71,53.19 41.12,51.87 24.53,54.52 7.95,53.19 V 12.14 l 16.58,1.33 16.59,-2.65 16.59,1.32 z"
       id="path4" />
    <path
       d="M 24.41,54.52 H 24.33 L 7.13,53.14 V 10.76 L 24.36,12.13 40.94,9.48 H 41 l 17.2,1.37 V 53.24 L 41,51.87 Z M 8.46,51.91 24.36,53.18 40.94,50.53 H 41 L 56.87,51.8 V 12.09 L 41,10.82 24.41,13.47 H 24.33 L 8.46,12.19 Z"
       fill="#ffffff"
       id="path6" />
    <path
       d="m 59.63,31.82 a 3,3 0 0 0 -3,-3 A 5.48,5.48 0 0 0 46.79,26 h -0.37 a 4.42,4.42 0 0 0 -0.48,8.81 h 11.1 a 3,3 0 0 0 2.59,-2.99 z M 25.61,32.61 A 3.61,3.61 0 0 0 22,29 H 21.94 A 6.6,6.6 0 0 0 10.13,25.59 H 9.69 A 5.33,5.33 0 0 0 9.11,36.21 h 13.37 a 3.6,3.6 0 0 0 3.13,-3.6 z"
       fill="#ffffff"
       stroke="#ffffff"
       stroke-miterlimit="10"
       id="path8" />
    <circle
       cx="32.830002"
       cy="32"
       r="10"
       class="fill-current-color"
       fill="#0079d6"
       id="circle10" />
    <path
       fill="#ffffff"
       d="m 36.89,26.93 -5.64,4.02 -2.48,6.48 5.64,-4.03 z"
       id="path12" />
  </g>
</svg>
